X: 43266
T: Woman Of The House, The
R: reel
M: 4/4
K: Gmajor
||AB{c}BA ~B3A|{c}G.ABd egdB|{c}BAG.B~A2 (3B.c.d|e.~B3 .g.edB|
G.B{c}BA BdAF|~G2 (3B.c.d egdB|{c}G.ABd ADG.A|BG{B}AG E.F{A}GE|
D.B{c}BA ~B3A|{c}G.ABd (3e.f.e dB|{c}BAG.B~A2 (3B.c.d|e.~B3 .~g3 a|
{b}ag{b}af {ef} ed{Bc}BA|~G2Bd .egdB|G.ABd ADG.A|BG{B}AG E.~G3||
.e.~f3 {g}ed{Bc}BA|F.Ad.f {g}edBd|f.Ad.f {g}edBd|(3e.f.e a^g a.f{a}ge|
~f3)a {ef}edBd|.g.f{a}g.e dc{d}BA|G.ABd ADG.A|BG{B}AG E.g{b}ag|
e~f3 {g}edef|{g}f{e}fd.f {g}edB(d|~f3)~a3 fa|ea{b}a^g a.f{a}ge|
f.Ad.f {g}edBd|gz (3.g.f.e dc{d}BA|~G3B {c}ADG.A|BG{B}AG E.F{A}GE||

